usr/share/arcologout/themes/red/suspend_blur.svg

<?xml version="1.0" encoding="UTF-8" standalone="no"?>
<svg
   xmlns:dc="http://purl.org/dc/elements/1.1/"
   xmlns:cc="http://creativecommons.org/ns#"
   xmlns:rdf="http://www.w3.org/1999/02/22-rdf-syntax-ns#"
   xmlns:svg="http://www.w3.org/2000/svg"
   xmlns="http://www.w3.org/2000/svg"
   xmlns:sodipodi="http://sodipodi.sourceforge.net/DTD/sodipodi-0.dtd"
   xmlns:inkscape="http://www.inkscape.org/namespaces/inkscape"
   width="24px"
   height="24px"
   viewBox="0 0 24 24"
   version="1.1"
   id="svg13"
   sodipodi:docname="suspend_blur.svg"
   inkscape:version="0.92.4 5da689c313, 2019-01-14">
  <metadata
     id="metadata17">
    <rdf:RDF>
      <cc:Work
         rdf:about="">
        <dc:format>image/svg+xml</dc:format>
        <dc:type
           rdf:resource="http://purl.org/dc/dcmitype/StillImage" />
        <dc:title>kdenlive-zindex-down</dc:title>
      </cc:Work>
    </rdf:RDF>
  </metadata>
  <sodipodi:namedview
     pagecolor="#ffffff"
     bordercolor="#666666"
     borderopacity="1"
     objecttolerance="10"
     gridtolerance="10"
     guidetolerance="10"
     inkscape:pageopacity="0"
     inkscape:pageshadow="2"
     inkscape:window-width="1920"
     inkscape:window-height="1080"
     id="namedview15"
     showgrid="false"
     inkscape:pagecheckerboard="true"
     inkscape:zoom="9.8333333"
     inkscape:cx="-7.8305085"
     inkscape:cy="12"
     inkscape:window-x="0"
     inkscape:window-y="0"
     inkscape:window-maximized="0"
     inkscape:current-layer="svg13" />
  <!-- Generator: Sketch 51.3 (57544) - http://www.bohemiancoding.com/sketch -->
  <title
     id="title2">kdenlive-zindex-down</title>
  <desc
     id="desc4">Created with Sketch.</desc>
  <g
     style="fill:#ffffff;fill-opacity:1;stroke:#ffffff;stroke-opacity:1;filter:url(#filter838)"
     fill-rule="evenodd"
     fill="none"
     stroke-width="1"
     stroke="none"
     id="g832">
    <g
       style="fill:#ffffff;fill-opacity:1;stroke:#ffffff;stroke-opacity:1"
       fill-rule="nonzero"
       fill="#DDDDDD"
       transform="translate(5.000000, 3.000000)"
       id="g830">
      <path
         style="fill:#ffffff;fill-opacity:1;stroke:#ffffff;stroke-opacity:1"
         id="path824"
         d="M6.5,1.996094 C5.94771475,1.996094 5.5,2.44380875 5.5,2.996094 C5.5,3.54837925 5.94771475,3.996094 6.5,3.996094 C7.05228525,3.996094 7.5,3.54837925 7.5,2.996094 C7.5,2.44379143 7.05229793,1.996094 6.5,1.996094 Z M6.5,0.996094 C7.60457,0.996094 8.5,1.891494 8.5,2.996094 C8.5,4.100664 7.60457,4.996094 6.5,4.996094 C5.39543,4.996094 4.5,4.100664 4.5,2.996094 C4.5,1.891524 5.39543,0.996094 6.5,0.996094 Z" />
      <rect
         style="fill:#ffffff;fill-opacity:1;stroke:#ffffff;stroke-opacity:1"
         height="1"
         width="9"
         y="10"
         x="2"
         transform="translate(6.500000, 10.500000) rotate(-90.000000) translate(-6.500000, -10.500000) "
         id="rect826" />
      <path
         style="fill:#ffffff;fill-opacity:1;stroke:#ffffff;stroke-opacity:1"
         transform="translate(6.521879, 10.742344) rotate(-45.000000) translate(-6.521879, -10.742344) "
         id="path828"
         d="M3.87543271,13.3887907 L10.8754327,13.3887907 L10.8754327,14.3887907 L3.87543271,14.3887907 L2.87543271,14.3887907 L2.87543271,6.38879071 L3.87543271,6.38879071 L3.87543271,13.3887907 Z" />
    </g>
  </g>
  <defs
     id="defs6">
    <filter
       inkscape:collect="always"
       style="color-interpolation-filters:sRGB"
       id="filter838"
       x="-0.27807129"
       width="1.5561426"
       y="-0.21109814"
       height="1.4221963">
      <feGaussianBlur
         inkscape:collect="always"
         stdDeviation="1.3108406"
         id="feGaussianBlur840" />
    </filter>
  </defs>
  <g
     id="kdenlive-zindex-down"
     stroke="none"
     stroke-width="1"
     fill="none"
     fill-rule="evenodd"
     style="fill:#ffffff;fill-opacity:1">
    <g
       id="218"
       transform="translate(5.000000, 3.000000)"
       fill="#DDDDDD"
       fill-rule="nonzero"
       style="fill:#ffffff;fill-opacity:1">
      <path
         d="M6.5,1.996094 C5.94771475,1.996094 5.5,2.44380875 5.5,2.996094 C5.5,3.54837925 5.94771475,3.996094 6.5,3.996094 C7.05228525,3.996094 7.5,3.54837925 7.5,2.996094 C7.5,2.44379143 7.05229793,1.996094 6.5,1.996094 Z M6.5,0.996094 C7.60457,0.996094 8.5,1.891494 8.5,2.996094 C8.5,4.100664 7.60457,4.996094 6.5,4.996094 C5.39543,4.996094 4.5,4.100664 4.5,2.996094 C4.5,1.891524 5.39543,0.996094 6.5,0.996094 Z"
         id="Path"
         style="fill:#ffffff;fill-opacity:1" />
      <rect
         id="Rectangle"
         transform="translate(6.500000, 10.500000) rotate(-90.000000) translate(-6.500000, -10.500000) "
         x="2"
         y="10"
         width="9"
         height="1"
         style="fill:#ffffff;fill-opacity:1" />
      <path
         d="M3.87543271,13.3887907 L10.8754327,13.3887907 L10.8754327,14.3887907 L3.87543271,14.3887907 L2.87543271,14.3887907 L2.87543271,6.38879071 L3.87543271,6.38879071 L3.87543271,13.3887907 Z"
         id="Combined-Shape"
         transform="translate(6.521879, 10.742344) rotate(-45.000000) translate(-6.521879, -10.742344) "
         style="fill:#ffffff;fill-opacity:1" />
    </g>
  </g>
</svg>

<?xml version="1.0" encoding="UTF-8"?>
<svg width="24px" height="24px" version="1.1" viewBox="0 0 24 24" xmlns="http://www.w3.org/2000/svg" xmlns:cc="http://creativecommons.org/ns#" xmlns:dc="http://purl.org/dc/elements/1.1/" xmlns:rdf="http://www.w3.org/1999/02/22-rdf-syntax-ns#">
 <metadata>
  <rdf:RDF>
   <cc:Work rdf:about="">
    <dc:format>image/svg+xml</dc:format>
    <dc:type rdf:resource="http://purl.org/dc/dcmitype/StillImage"/>
    <dc:title>kdenlive-zindex-down</dc:title>
   </cc:Work>
  </rdf:RDF>
 </metadata>
 <!-- Generator: Sketch 51.3 (57544) - http://www.bohemiancoding.com/sketch -->
 <title>kdenlive-zindex-down</title>
 <desc>Created with Sketch.</desc>
 <g fill="#b00000" fill-rule="evenodd" filter="url(#filter838)" stroke="#b00000">
  <g transform="translate(5 3)" fill="#b00000" fill-rule="nonzero" stroke="#b00000">
   <path d="m6.5 1.9961c-0.55229 0-1 0.44771-1 1s0.44771 1 1 1 1-0.44771 1-1c0-0.5523-0.4477-1-1-1zm0-1c1.1046 0 2 0.8954 2 2 0 1.1046-0.89543 2-2 2s-2-0.89543-2-2 0.89543-2 2-2z"/>
   <rect transform="translate(6.5 10.5) rotate(-90) translate(-6.5 -10.5)" x="2" y="10" width="9" height="1"/>
   <path transform="translate(6.5219 10.742) rotate(-45) translate(-6.5219 -10.742)" d="m3.8754 13.389h7v1h-7-1v-8h1v7z"/>
  </g>
 </g>
 <defs>
  <filter id="filter838" x="-.27807" y="-.2111" width="1.5561" height="1.4222" color-interpolation-filters="sRGB">
   <feGaussianBlur stdDeviation="1.3108406"/>
  </filter>
 </defs>
 <g id="kdenlive-zindex-down" fill="#b00000" fill-rule="evenodd">
  <g transform="translate(5 3)" fill="#b00000" fill-rule="nonzero">
   <path id="Path" d="m6.5 1.9961c-0.55229 0-1 0.44771-1 1s0.44771 1 1 1 1-0.44771 1-1c0-0.5523-0.4477-1-1-1zm0-1c1.1046 0 2 0.8954 2 2 0 1.1046-0.89543 2-2 2s-2-0.89543-2-2 0.89543-2 2-2z"/>
   <rect id="Rectangle" transform="translate(6.5 10.5) rotate(-90) translate(-6.5 -10.5)" x="2" y="10" width="9" height="1"/>
   <path id="Combined-Shape" transform="translate(6.5219 10.742) rotate(-45) translate(-6.5219 -10.742)" d="m3.8754 13.389h7v1h-7-1v-8h1v7z"/>
  </g>
 </g>
</svg>
